dist/img/svg/house.svg

<svg width="65" height="65" viewBox="0 0 65 65" fill="none" xmlns="http://www.w3.org/2000/svg">
<path d="M56.5047 16.7723C61.1265 16.7723 64.8732 13.0177 64.8732 8.38614C64.8732 3.7546 61.1265 0 56.5047 0C51.8829 0 48.1362 3.7546 48.1362 8.38614C48.1362 13.0177 51.8829 16.7723 56.5047 16.7723Z" fill="url(#paint0_linear_1_649)"/>
<path d="M56.5047 16.7723C61.1265 16.7723 64.8732 13.0177 64.8732 8.38614C64.8732 3.7546 61.1265 0 56.5047 0C51.8829 0 48.1362 3.7546 48.1362 8.38614C48.1362 13.0177 51.8829 16.7723 56.5047 16.7723Z" fill="#FF8800"/>
<path d="M45.6264 47.0186H51.0098V52.4134H45.6264V47.0186Z" fill="url(#paint1_linear_1_649)"/>
<path d="M45.6264 47.0186H51.0098V52.4134H45.6264V47.0186Z" fill="#FF8800"/>
<path d="M35.827 17.6773C36.8712 16.7491 38.215 16.2379 39.6107 16.2379C41.0064 16.2379 42.3502 16.7492 43.3944 17.6773L44.8949 19.0111V14.2457C44.8949 6.4011 38.5263 0.0191699 30.6981 0.0191699C23.8411 0.0191699 18.1041 4.91613 16.7862 11.4034C18.9418 14.6843 22.7194 21.0973 24.3351 27.8933L35.827 17.6773Z" fill="url(#paint2_linear_1_649)"/>
<path d="M35.827 17.6773C36.8712 16.7491 38.215 16.2379 39.6107 16.2379C41.0064 16.2379 42.3502 16.7492 43.3944 17.6773L44.8949 19.0111V14.2457C44.8949 6.4011 38.5263 0.0191699 30.6981 0.0191699C23.8411 0.0191699 18.1041 4.91613 16.7862 11.4034C18.9418 14.6843 22.7194 21.0973 24.3351 27.8933L35.827 17.6773Z" fill="#FF8800"/>
<path d="M63.0993 61.1665H60.4743V43.0445L61.7113 44.1441C62.0731 44.4658 62.5234 44.624 62.9718 44.6239C63.4965 44.6239 64.0188 44.4074 64.3943 43.9832C65.0909 43.1963 65.019 41.9925 64.2337 41.2945L58.6621 36.3417V26.4711C58.6621 25.4193 57.8112 24.5666 56.7615 24.5666C55.7119 24.5666 54.8609 25.4193 54.8609 26.4711V32.9626L40.8717 20.5268C40.152 19.8871 39.0689 19.8871 38.3493 20.5268L14.9874 41.2944C14.2022 41.9924 14.1304 43.1962 14.8268 43.983C15.5234 44.77 16.7248 44.8419 17.5098 44.1439L18.7469 43.0442V61.1663H12.613V52.8572C13.4249 52.6085 14.2062 52.2002 14.9459 51.6405V48.2815C13.8098 48.0141 12.7711 47.4007 11.9835 46.5111C9.89725 44.1543 10.1132 40.5359 12.4649 38.4451L21.0433 30.8193C19.5994 21.588 12.573 11.9632 12.2412 11.513C11.8828 11.027 11.3156 10.7402 10.7125 10.7402C10.1095 10.7402 9.54229 11.027 9.1839 11.513C8.81383 12.0148 0.122256 23.9192 0.122256 33.969C0.122256 38.8741 1.0984 43.5155 2.87091 47.0382C4.43446 50.1456 6.4991 52.1501 8.81193 52.8573V61.1665H1.90061C0.850965 61.1665 0 62.0193 0 63.0711C0 64.1229 0.850965 64.9756 1.90061 65H63.0994C64.149 64.9756 65 64.1229 65 63.0711C65 62.0193 64.1489 61.1665 63.0993 61.1665ZM41.8251 45.1141C41.8251 44.0623 42.6761 43.2095 43.7257 43.2095H52.9104C53.9601 43.2095 54.811 44.0623 54.811 45.1141V54.318C54.811 55.3698 53.9601 56.2226 52.9104 56.2226H43.7257C42.6761 56.2226 41.8251 55.3698 41.8251 54.318V45.1141ZM31.4177 61.1665V47.0186H27.6164V61.1665H23.8153V45.1141C23.8153 44.0621 24.6663 43.2095 25.716 43.2095H33.3183C34.3679 43.2095 35.2189 44.0623 35.2189 45.1141V61.1665H31.4177Z" fill="url(#paint3_linear_1_649)"/>
<path d="M63.0993 61.1665H60.4743V43.0445L61.7113 44.1441C62.0731 44.4658 62.5234 44.624 62.9718 44.6239C63.4965 44.6239 64.0188 44.4074 64.3943 43.9832C65.0909 43.1963 65.019 41.9925 64.2337 41.2945L58.6621 36.3417V26.4711C58.6621 25.4193 57.8112 24.5666 56.7615 24.5666C55.7119 24.5666 54.8609 25.4193 54.8609 26.4711V32.9626L40.8717 20.5268C40.152 19.8871 39.0689 19.8871 38.3493 20.5268L14.9874 41.2944C14.2022 41.9924 14.1304 43.1962 14.8268 43.983C15.5234 44.77 16.7248 44.8419 17.5098 44.1439L18.7469 43.0442V61.1663H12.613V52.8572C13.4249 52.6085 14.2062 52.2002 14.9459 51.6405V48.2815C13.8098 48.0141 12.7711 47.4007 11.9835 46.5111C9.89725 44.1543 10.1132 40.5359 12.4649 38.4451L21.0433 30.8193C19.5994 21.588 12.573 11.9632 12.2412 11.513C11.8828 11.027 11.3156 10.7402 10.7125 10.7402C10.1095 10.7402 9.54229 11.027 9.1839 11.513C8.81383 12.0148 0.122256 23.9192 0.122256 33.969C0.122256 38.8741 1.0984 43.5155 2.87091 47.0382C4.43446 50.1456 6.4991 52.1501 8.81193 52.8573V61.1665H1.90061C0.850965 61.1665 0 62.0193 0 63.0711C0 64.1229 0.850965 64.9756 1.90061 65H63.0994C64.149 64.9756 65 64.1229 65 63.0711C65 62.0193 64.1489 61.1665 63.0993 61.1665ZM41.8251 45.1141C41.8251 44.0623 42.6761 43.2095 43.7257 43.2095H52.9104C53.9601 43.2095 54.811 44.0623 54.811 45.1141V54.318C54.811 55.3698 53.9601 56.2226 52.9104 56.2226H43.7257C42.6761 56.2226 41.8251 55.3698 41.8251 54.318V45.1141ZM31.4177 61.1665V47.0186H27.6164V61.1665H23.8153V45.1141C23.8153 44.0621 24.6663 43.2095 25.716 43.2095H33.3183C34.3679 43.2095 35.2189 44.0623 35.2189 45.1141V61.1665H31.4177Z" fill="#FF8800"/>
<defs>
<linearGradient id="paint0_linear_1_649" x1="3" y1="29" x2="65" y2="65" gradientUnits="userSpaceOnUse">
<stop stop-color="#FFECDE"/>
<stop offset="1" stop-color="white"/>
</linearGradient>
<linearGradient id="paint1_linear_1_649" x1="3" y1="29" x2="65" y2="65" gradientUnits="userSpaceOnUse">
<stop stop-color="#FFECDE"/>
<stop offset="1" stop-color="white"/>
</linearGradient>
<linearGradient id="paint2_linear_1_649" x1="3" y1="29" x2="65" y2="65" gradientUnits="userSpaceOnUse">
<stop stop-color="#FFECDE"/>
<stop offset="1" stop-color="white"/>
</linearGradient>
<linearGradient id="paint3_linear_1_649" x1="3" y1="29" x2="65" y2="65" gradientUnits="userSpaceOnUse">
<stop stop-color="#FFECDE"/>
<stop offset="1" stop-color="white"/>
</linearGradient>
</defs>
</svg>

<svg width="65" height="65" fill="none" xmlns="http://www.w3.org/2000/svg"><path d="M56.505 16.772c4.621 0 8.368-3.754 8.368-8.386C64.873 3.755 61.126 0 56.505 0c-4.622 0-8.369 3.755-8.369 8.386 0 4.632 3.747 8.386 8.369 8.386z" fill="url(#paint0_linear_1_649)"/><path d="M56.505 16.772c4.621 0 8.368-3.754 8.368-8.386C64.873 3.755 61.126 0 56.505 0c-4.622 0-8.369 3.755-8.369 8.386 0 4.632 3.747 8.386 8.369 8.386z" fill="#F80"/><path d="M45.626 47.019h5.384v5.394h-5.384V47.02z" fill="url(#paint1_linear_1_649)"/><path d="M45.626 47.019h5.384v5.394h-5.384V47.02z" fill="#F80"/><path d="M35.827 17.677a5.69 5.69 0 017.567 0l1.5 1.334v-4.765C44.895 6.4 38.527.019 30.699.019c-6.857 0-12.594 4.897-13.912 11.384 2.156 3.281 5.933 9.694 7.55 16.49l11.491-10.216z" fill="url(#paint2_linear_1_649)"/><path d="M35.827 17.677a5.69 5.69 0 017.567 0l1.5 1.334v-4.765C44.895 6.4 38.527.019 30.699.019c-6.857 0-12.594 4.897-13.912 11.384 2.156 3.281 5.933 9.694 7.55 16.49l11.491-10.216z" fill="#F80"/><path d="M63.1 61.166h-2.626v-18.12l1.237 1.1a1.894 1.894 0 002.683-.16 1.907 1.907 0 00-.16-2.69l-5.572-4.953v-9.87a1.902 1.902 0 10-3.801-.001v6.492L40.87 20.527a1.898 1.898 0 00-2.522 0L14.987 41.294a1.907 1.907 0 00-.16 2.689 1.898 1.898 0 002.683.16l1.237-1.099v18.122h-6.134v-8.309a7.519 7.519 0 002.333-1.216v-3.36a5.703 5.703 0 01-2.963-1.77 5.729 5.729 0 01.482-8.066l8.578-7.626c-1.444-9.231-8.47-18.856-8.802-19.306a1.9 1.9 0 00-3.057 0c-.37.502-9.062 12.406-9.062 22.456 0 4.905.976 9.547 2.749 13.07 1.563 3.107 3.628 5.111 5.94 5.818v8.31h-6.91A1.9 1.9 0 000 63.07 1.94 1.94 0 001.9 65h61.2a1.94 1.94 0 001.9-1.929 1.903 1.903 0 00-1.9-1.904zM41.824 45.114c0-1.052.851-1.904 1.9-1.904h9.185c1.05 0 1.901.852 1.901 1.904v9.204c0 1.052-.85 1.905-1.9 1.905h-9.185c-1.05 0-1.9-.853-1.9-1.905v-9.204zM31.418 61.167V47.019h-3.802v14.148h-3.8V45.114c0-1.052.85-1.904 1.9-1.904h7.602c1.05 0 1.9.852 1.9 1.904v16.053h-3.8z" fill="url(#paint3_linear_1_649)"/><path d="M63.1 61.166h-2.626v-18.12l1.237 1.1a1.894 1.894 0 002.683-.16 1.907 1.907 0 00-.16-2.69l-5.572-4.953v-9.87a1.902 1.902 0 10-3.801-.001v6.492L40.87 20.527a1.898 1.898 0 00-2.522 0L14.987 41.294a1.907 1.907 0 00-.16 2.689 1.898 1.898 0 002.683.16l1.237-1.099v18.122h-6.134v-8.309a7.519 7.519 0 002.333-1.216v-3.36a5.703 5.703 0 01-2.963-1.77 5.729 5.729 0 01.482-8.066l8.578-7.626c-1.444-9.231-8.47-18.856-8.802-19.306a1.9 1.9 0 00-3.057 0c-.37.502-9.062 12.406-9.062 22.456 0 4.905.976 9.547 2.749 13.07 1.563 3.107 3.628 5.111 5.94 5.818v8.31h-6.91A1.9 1.9 0 000 63.07 1.94 1.94 0 001.9 65h61.2a1.94 1.94 0 001.9-1.929 1.903 1.903 0 00-1.9-1.904zM41.824 45.114c0-1.052.851-1.904 1.9-1.904h9.185c1.05 0 1.901.852 1.901 1.904v9.204c0 1.052-.85 1.905-1.9 1.905h-9.185c-1.05 0-1.9-.853-1.9-1.905v-9.204zM31.418 61.167V47.019h-3.802v14.148h-3.8V45.114c0-1.052.85-1.904 1.9-1.904h7.602c1.05 0 1.9.852 1.9 1.904v16.053h-3.8z" fill="#F80"/><defs><linearGradient id="paint0_linear_1_649" x1="3" y1="29" x2="65" y2="65" gradientUnits="userSpaceOnUse"><stop stop-color="#FFECDE"/><stop offset="1" stop-color="#fff"/></linearGradient><linearGradient id="paint1_linear_1_649" x1="3" y1="29" x2="65" y2="65" gradientUnits="userSpaceOnUse"><stop stop-color="#FFECDE"/><stop offset="1" stop-color="#fff"/></linearGradient><linearGradient id="paint2_linear_1_649" x1="3" y1="29" x2="65" y2="65" gradientUnits="userSpaceOnUse"><stop stop-color="#FFECDE"/><stop offset="1" stop-color="#fff"/></linearGradient><linearGradient id="paint3_linear_1_649" x1="3" y1="29" x2="65" y2="65" gradientUnits="userSpaceOnUse"><stop stop-color="#FFECDE"/><stop offset="1" stop-color="#fff"/></linearGradient></defs></svg>
